src/assets/icons/letters,fancy,sans-b.svg

<svg width="48" height="48" viewBox="0 0 48 48" fill="none" xmlns="http://www.w3.org/2000/svg">
<g clip-path="url(#clip0_86:27)">
<path d="M12.3058 38H24.7347C31.2688 38 34.7489 34.5909 34.7489 29.9602C34.7489 25.6562 31.6665 23.0568 28.3569 22.9006V22.6165C31.3825 21.9347 33.6126 19.7898 33.6126 16.3665C33.6126 12.0057 30.3739 8.90909 23.9535 8.90909H12.3058V38ZM18.4563 32.9716V25.2443H23.6126C26.5671 25.2443 28.3995 26.9489 28.3995 29.3494C28.3995 31.5369 26.908 32.9716 23.4705 32.9716H18.4563ZM18.4563 21.0824V13.8807H23.1296C25.8569 13.8807 27.4052 15.2869 27.4052 17.3892C27.4052 19.6903 25.5302 21.0824 23.016 21.0824H18.4563Z" fill="black"/>
</g>
<defs>
<clipPath id="clip0_86:27">
<rect width="48" height="48" fill="white"/>
</clipPath>
</defs>
</svg>

<svg xmlns="http://www.w3.org/2000/svg" width="48" height="48" fill="none" viewBox="0 0 48 48">
  <g clip-path="url(#clip0_86:27)">
    <path fill="#000" d="M12.306 38h12.429c6.534 0 10.014-3.41 10.014-8.04 0-4.304-3.083-6.903-6.392-7.06v-.284c3.026-.681 5.256-2.826 5.256-6.25 0-4.36-3.24-7.457-9.66-7.457H12.306V38zm6.15-5.028v-7.728h5.157c2.954 0 4.787 1.705 4.787 4.105 0 2.188-1.492 3.623-4.93 3.623h-5.014zm0-11.89v-7.201h4.674c2.727 0 4.275 1.406 4.275 3.508 0 2.301-1.875 3.693-4.389 3.693h-4.56z"/>
  </g>
  <defs>
    <clipPath id="clip0_86:27">
      <path fill="#fff" d="M0 0h48v48H0z"/>
    </clipPath>
  </defs>
</svg>
